!!!OTL: Der lustige Nagelschmied (3-42), S. 127
!!!id: P1014
**kern
*clefG2
*k[]
*G:
{16g
=1
16g
8g
8g
8b
8b
=2
8g
8g
4a}
=3
{8b
8g
8dd
16dd
16dd
=4
8b
8a
8g}
16r
=5
{16g
=6
8g
8g
8b
8b
=7
8g
8g
4a}
=8
{8b
8g
8dd
16dd
16dd
=9
2b}
==
*-
!!!minrhy: 16
!!!meters: 2/4 ]  ZZ[4
!!!cut: Der lustige Nagelschmied (3-42), S. 127
!!!reg: Lothringen
!!!trd: PINCK, Louis: Verklingende Weisen, Bd3, Metz 1933
!!!rhy1:   X_X_X_X_  X_X_X__
!!!rhy2: X_X_X_XX  X_X_X_0
!!!key: P1014  16  G 2/4 ]  ZZ[4
!!!mod: VIERTONSKALA ]  AMBITUS[5
!!!kad: 2123
!!!akz: 11_33_11_33_
!!!fot: 'a__as"av_as"
!!!for: 'a__b__av_bw_
!!!fok: '/__Sd_/__S__
!! PHRAS[VORWIEGEND VOLLTAKTIG]
!!!fkt: Berufslied
!! LOTH VKL
!! PR[30] 2K[3] 2G[16] 3K[3] 3G[8] 4A[5] 4Ü[0] 5A[0] 6K[0] 6G[0]
!! 7K[0] 7G[0] 8A[0] MEHR[0] SI[35] ABS[37] SR[19] SP[16]
!! ST[8] 2k[3] 2g[24] 3k[3] 3g[3] 4d[0] 4ü[0] 5d[3] 6k[0] 6g[0]
!! 7k[0] 7g[0] 8d[0] mehr[0] si[35] dm[0] sr[27] sp[8]
!! 1F[55] 2F[38] 3F[8] 4F[0] LF[0] 2P[0] 3P[0] 4P[0] TRI[0] DF[3] AB[40]
!! TF[0] U3K[0] U3[0] U4[0] U4Ü[0] U5[8] U6K[0] U6[3] U7K[0] U7[5]
!! N1[37] N2K[0] N2[29] N3K[0] N3[13] N4[3] N4Ü[0] N5[3] N6K[0] N6[0]
!!!n7k: 0] N7[0] O1[0] O2K[0] O2[0] O3K[0] O3[0] HÖ[0
